outputs/icons/hardware/printer_sharp.svg

<svg width="1200" height="1200" viewBox="0 0 1200 1200" fill="none" xmlns="http://www.w3.org/2000/svg"><g clip-path="url(#clip0_750_1658)"><path d="M950 400H250C167 400 100 467 100 550V850H300V1050H900V850H1100V550C1100 467 1033 400 950 400ZM800 950H400V700H800V950ZM950 600C922.5 600 900 577.5 900 550C900 522.5 922.5 500 950 500C977.5 500 1000 522.5 1000 550C1000 577.5 977.5 600 950 600ZM900 150H300V350H900V150Z" fill="#1D1E23"/></g><defs><clipPath id="clip0_750_1658"><path width="24" fill="white" d="M0 0H1200V1200H0V0z"/></clipPath></defs></svg>

<svg xmlns="http://www.w3.org/2000/svg" width="1200" height="1200" fill="none"><g clip-path="url(#a)"><path fill="#000" d="M950 400H250c-83 0-150 67-150 150v300h200v200h600V850h200V550c0-83-67-150-150-150M800 950H400V700h400zm150-350c-27.5 0-50-22.5-50-50s22.5-50 50-50 50 22.5 50 50-22.5 50-50 50m-50-450H300v200h600z"/></g><defs><clipPath id="a"><path fill="#fff" d="M0 0h1200v1200H0z"/></clipPath></defs></svg>
